assets/menu.svg

<svg width="18" height="16" viewBox="0 0 18 16" fill="none" xmlns="http://www.w3.org/2000/svg">
<path fill-rule="evenodd" clip-rule="evenodd" d="M0 1C0 0.447715 0.447715 0 1 0H17C17.5523 0 18 0.447715 18 1C18 1.55228 17.5523 2 17 2H1C0.447716 2 0 1.55228 0 1ZM0 8C0 7.44772 0.447715 7 1 7H9C9.55228 7 10 7.44772 10 8C10 8.55229 9.55229 9 9 9H1C0.447715 9 0 8.55229 0 8ZM1 14C0.447715 14 0 14.4477 0 15C0 15.5523 0.447716 16 1 16H13C13.5523 16 14 15.5523 14 15C14 14.4477 13.5523 14 13 14H1Z" fill="white"/>
</svg>

<svg width="18" height="16" fill="none" xmlns="http://www.w3.org/2000/svg"><path fill-rule="evenodd" clip-rule="evenodd" d="M0 1a1 1 0 0 1 1-1h16a1 1 0 1 1 0 2H1a1 1 0 0 1-1-1Zm0 7a1 1 0 0 1 1-1h8a1 1 0 0 1 0 2H1a1 1 0 0 1-1-1Zm1 6a1 1 0 1 0 0 2h12a1 1 0 1 0 0-2H1Z" fill="#fff"/></svg>
